layouts/icon-pack/potion_resist.svg

<?xml version="1.0" encoding="UTF-8"?>
<svg width="1200pt" height="1200pt" version="1.1" viewBox="0 0 1200 1200" xmlns="http://www.w3.org/2000/svg">
 <g fill="#fff">
  <path d="m520.48 160.92h159.05c18.082-0.023437 35.414-7.2266 48.191-20.023 12.773-12.797 19.949-30.145 19.941-48.227v-18.75c0-4.7109-1.8711-9.2305-5.2031-12.562s-7.8516-5.2031-12.562-5.2031h-259.88c-4.6836 0.023438-9.168 1.8984-12.477 5.2109-3.3086 3.3125-5.1758 7.8008-5.1953 12.484v18.75c-0.023438 18.094 7.1406 35.457 19.918 48.27 12.777 12.812 30.121 20.027 48.215 20.051z"/>
  <path d="m437.2 1122.7c9.3906 13.297 24.645 21.219 40.922 21.258h243.75c16.277-0.039062 31.531-7.9609 40.922-21.258 104.11-147.33 178.69-260.7 211.48-311.34 5.418-8.418 8.1289-18.293 7.7578-28.297-0.36719-10.004-3.7969-19.652-9.8203-27.648-145.9-195.75-232.2-427.99-260.93-513.28-3.2969-9.7773-9.582-18.27-17.969-24.281-8.3867-6.0078-18.449-9.2305-28.766-9.2109h-129.09c-10.324-0.015625-20.391 3.2109-28.777 9.2305s-14.668 14.523-17.957 24.309c-28.734 85.289-115.03 317.53-260.93 513.28-6.0234 7.9961-9.4531 17.645-9.8203 27.648-0.37109 10.004 2.3398 19.879 7.7578 28.297 32.789 50.648 107.37 164.02 211.48 311.3zm-88.289-373.57c26.766-47.016 61.969-109.29 82.031-144.68 4.7461-8.4102 11.645-15.406 19.984-20.273 8.3359-4.8672 17.82-7.4297 27.477-7.4297h243.26c9.6562 0 19.141 2.5625 27.477 7.4297 8.3398 4.8672 15.238 11.863 19.984 20.273 19.992 35.391 55.195 97.664 82.031 144.68 3.5 6.1406 5.2266 13.129 4.9922 20.191-0.23828 7.0664-2.4258 13.922-6.3281 19.816-27.703 41.766-94.805 143.72-155.72 240.91-8.0547 12.859-22.16 20.672-37.336 20.672h-113.53c-15.176 0-29.281-7.8125-37.336-20.672-60.938-97.172-128.02-199.22-155.65-240.91-3.9023-5.8945-6.0898-12.75-6.3281-19.816-0.23438-7.0625 1.4922-14.051 4.9922-20.191z"/>
 </g>
</svg>

<?xml version="1.0" encoding="UTF-8" standalone="no"?>
<!DOCTYPE svg PUBLIC "-//W3C//DTD SVG 1.1//EN" "http://www.w3.org/Graphics/SVG/1.1/DTD/svg11.dtd">
<svg width="100%" height="100%" viewBox="0 0 360 512" version="1.1" xmlns="http://www.w3.org/2000/svg" xmlns:xlink="http://www.w3.org/1999/xlink" xml:space="preserve" xmlns:serif="http://www.serif.com/" style="fill-rule:evenodd;clip-rule:evenodd;stroke-linejoin:round;stroke-miterlimit:2;">
    <g transform="matrix(1,0,0,1,-217.939,-56.1549)">
        <g transform="matrix(0.470673,0,0,0.470673,115.361,29.7243)">
            <path d="M520.48,160.92L679.53,160.92C697.612,160.897 714.944,153.693 727.721,140.897C740.494,128.1 747.67,110.752 747.662,92.67L747.662,73.92C747.662,69.209 745.791,64.689 742.459,61.358C739.127,58.027 734.607,56.155 729.897,56.155L470.017,56.155C465.333,56.178 460.849,58.053 457.54,61.366C454.231,64.678 452.364,69.167 452.345,73.85L452.345,92.6C452.321,110.694 459.485,128.057 472.263,140.87C485.04,153.682 502.384,160.897 520.478,160.921L520.48,160.92Z" style="fill:white;fill-rule:nonzero;"/>
        </g>
        <g transform="matrix(0.470673,0,0,0.470673,115.361,29.7243)">
            <path d="M437.2,1122.7C446.591,1136 461.845,1143.92 478.122,1143.96L721.872,1143.96C738.149,1143.92 753.403,1136 762.794,1122.7C866.904,975.37 941.484,862 974.274,811.36C979.692,802.942 982.403,793.067 982.032,783.063C981.665,773.059 978.235,763.411 972.212,755.415C826.312,559.665 740.012,327.425 711.282,242.135C707.985,232.358 701.7,223.865 693.313,217.854C684.926,211.846 674.864,208.624 664.547,208.643L535.457,208.643C525.133,208.627 515.066,211.854 506.68,217.874C498.294,223.893 492.012,232.397 488.723,242.183C459.989,327.472 373.693,559.713 227.793,755.463C221.769,763.459 218.339,773.108 217.972,783.111C217.601,793.115 220.312,802.99 225.73,811.408C258.519,862.056 333.1,975.428 437.21,1122.71L437.2,1122.7ZM348.911,749.13C375.677,702.114 410.88,639.84 430.942,604.45C435.688,596.04 442.587,589.044 450.926,584.177C459.262,579.31 468.746,576.747 478.403,576.747L721.663,576.747C731.319,576.747 740.804,579.31 749.14,584.177C757.48,589.044 764.378,596.04 769.124,604.45C789.116,639.841 824.319,702.114 851.155,749.13C854.655,755.271 856.382,762.259 856.147,769.321C855.909,776.387 853.721,783.243 849.819,789.137C822.116,830.903 755.014,932.857 694.099,1030.05C686.044,1042.91 671.939,1050.72 656.763,1050.72L543.233,1050.72C528.057,1050.72 513.952,1042.91 505.897,1030.05C444.959,932.875 377.877,830.827 350.247,789.137C346.345,783.243 344.157,776.387 343.919,769.321C343.685,762.259 345.411,755.27 348.911,749.13L348.911,749.13Z" style="fill:white;fill-rule:nonzero;"/>
        </g>
    </g>
</svg>
